X:18
T:The Coal Bin
R:jig
C:Paul S. Cranford
O:Cape Breton Island
S:http://www.cranfordpub.com
D:currently unrecorded
B:currently unpublished in book form
Z:psc, (re-formatted,updated 9/17/04)
N:
H:                                                        copyrights Cranford Publications, SOCAN
L:1/8
M:6/8
Q:300
K:Amix
B|Aag aec|def gAf|eag edc|ABc d2 B|
eag aec|def gAf|eac def|edB A2:|
|:c|dcB eAA|dAA eAA|dcB eAe|def g2 e|
[1dcB eAA|dAA eAG|Aac def|edB A2:|
[2dag eAA|dAa eAG|Aac dAf|edB A2|]
